public/icons/icon/size-small.svg

<svg width="30" height="30" viewBox="0 0 30 30" fill="none" xmlns="http://www.w3.org/2000/svg">
<path d="M18.0646 11.0675C17.9962 10.3777 17.7026 9.84186 17.1838 9.45991C16.6651 9.07796 15.961 8.88699 15.0717 8.88699C14.4675 8.88699 13.9572 8.9725 13.5411 9.14352C13.1249 9.30884 12.8057 9.53972 12.5834 9.83616C12.3667 10.1326 12.2584 10.4689 12.2584 10.8452C12.247 11.1587 12.3126 11.4324 12.4551 11.6661C12.6033 11.8998 12.8057 12.1022 13.0622 12.2732C13.3188 12.4385 13.6152 12.5839 13.9515 12.7093C14.2879 12.829 14.647 12.9316 15.029 13.0172L16.6024 13.3934C17.3663 13.5644 18.0675 13.7925 18.7059 14.0775C19.3444 14.3625 19.8974 14.7131 20.3648 15.1293C20.8323 15.5454 21.1943 16.0357 21.4508 16.6001C21.7131 17.1644 21.847 17.8115 21.8527 18.5411C21.847 19.6129 21.5734 20.5421 21.0318 21.3288C20.496 22.1098 19.7207 22.7169 18.7059 23.1502C17.6969 23.5777 16.4798 23.7915 15.0546 23.7915C13.6409 23.7915 12.4095 23.5749 11.3606 23.1416C10.3173 22.7084 9.50214 22.067 8.91496 21.2176C8.33349 20.3625 8.0285 19.305 8 18.0452H11.5829C11.6228 18.6324 11.791 19.1226 12.0874 19.516C12.3895 19.9036 12.7915 20.1972 13.2931 20.3967C13.8005 20.5906 14.3734 20.6875 15.0119 20.6875C15.639 20.6875 16.1834 20.5963 16.6451 20.4138C17.1126 20.2314 17.4746 19.9777 17.7311 19.6528C17.9877 19.3278 18.1159 18.9544 18.1159 18.5326C18.1159 18.1392 17.9991 17.8086 17.7653 17.5407C17.5373 17.2727 17.201 17.0447 16.7563 16.8566C16.3173 16.6685 15.7786 16.4974 15.1401 16.3435L13.2333 15.8647C11.7568 15.5055 10.591 14.944 9.73587 14.1801C8.88076 13.4162 8.45606 12.3872 8.46176 11.0932C8.45606 10.0328 8.73824 9.10647 9.30831 8.31407C9.88409 7.52167 10.6736 6.90314 11.677 6.45849C12.6803 6.01383 13.8204 5.7915 15.0974 5.7915C16.3972 5.7915 17.5316 6.01383 18.5007 6.45849C19.4755 6.90314 20.2337 7.52167 20.7753 8.31407C21.3169 9.10647 21.5962 10.0243 21.6133 11.0675H18.0646Z" fill="black"/>
</svg>

<svg xmlns="http://www.w3.org/2000/svg" width="30" height="30" fill="none"><path fill="#000" d="M18.065 11.068c-.069-.69-.362-1.226-.881-1.608-.519-.382-1.223-.573-2.112-.573-.604 0-1.115.085-1.53.257-.417.165-.736.396-.959.692a1.667 1.667 0 0 0-.325 1.01c-.011.313.055.586.197.82.148.234.35.436.607.607.257.165.553.31.89.436.336.12.695.223 1.077.308l1.573.376c.764.171 1.465.4 2.104.684a6.386 6.386 0 0 1 1.659 1.052c.467.416.83.907 1.086 1.471.262.564.396 1.211.402 1.941-.006 1.072-.28 2.001-.821 2.788-.536.78-1.311 1.388-2.326 1.821-1.01.428-2.226.642-3.651.642-1.414 0-2.646-.217-3.694-.65-1.044-.434-1.859-1.075-2.446-1.924-.582-.855-.886-1.913-.915-3.173h3.583c.04.587.208 1.078.504 1.471.303.388.704.681 1.206.88.508.195 1.08.291 1.719.291.627 0 1.171-.09 1.633-.273.468-.183.83-.436 1.086-.761.257-.325.385-.699.385-1.12 0-.394-.117-.724-.35-.992-.229-.268-.565-.496-1.01-.684-.439-.188-.977-.36-1.616-.514l-1.907-.478c-1.476-.36-2.642-.921-3.497-1.685s-1.28-1.793-1.274-3.087c-.006-1.06.276-1.987.846-2.779.576-.792 1.366-1.41 2.369-1.856 1.003-.444 2.143-.667 3.42-.667 1.3 0 2.435.223 3.404.667.974.445 1.733 1.064 2.274 1.856.542.792.821 1.71.838 2.754h-3.548Z"/></svg>
